X:1
T:Songs of the Kingdom
T:Songs of the Kingdom
T:Adam Geibel
T:Marie L. Corley, 1905
T:Public Domain Courtesy of the Cyber Hymnal™
C:Adam Geibel
Z:Public Domain
Z:Courtesy of the Cyber Hymnal™
%%score ( 1 2 ) ( 3 4 )
L:1/8
Q:1/4=102
M:4/4
K:Eb
V:1 treble 
V:2 treble 
V:3 bass 
V:4 bass 
V:1
 (EG) | [GB]3 [EG] E[EG][EA][Ec] | [EB]6 [EG]2 | [DB]2 ([FA][EG]) [DF]2 [DB]2 | [EG]6 (EG) | %5
w: 1.~God’s *|king- dom is with- in the|heart, ’Tis|there He * reigns as|king; He *|
w: 2.~God’s *|king- dom is with- in the|heart, Sweet|mel- o- * dies are|there; We *|
w: 3.~God’s *|king- dom is with- in the|heart, Dear|Sav- ior, * reign in|love, Un- *|
 [GB]3 [EG] E[EG][EA][Ec] | [EB]6 ([GB][_Gc]) | [Fd]2 [FB]2 (=AB) [Ec]2 | [DB]6 ||"^Refrain" B>B | %10
w: speaks to us and bids us|learn His *|bless- èd songs * to|sing.||
w: hear His ten- der lov- ing|tones, It *|sanc- ti- fies * our|care.|O the|
w: til to Heav- en we are|called To *|sing the songs * a-|bove.||
 [Ad]3 [Ad] [Ad]2 [Ac][Ad] | e4 [GB]3 [EB] | [Ec]2 [Ed][Ee] (eB)[DA][EG] | [DF]6 [DF]2 | %14
w: ||||
w: songs, the songs of the|king- dom, That|help us bid e- * vil de-|part; The|
w: ||||
 [EG]2 [EG]>[FA] [GB]2 [EG]E | [Ec]4 !fermata![Ae]2 (EF) | [EG]2 [Ed][Ec] (BF) !fermata![DG]>[DF] | %17
w: |||
w: glad songs of God’s bless- èd|king- dom, The *|king- dom of God * in the|
w: |||
 !fermata!E6 |] %18
w: |
w: heart.|
w: |
V:2
 E2 | x4 E x3 | x8 | x8 | x6 E2 | x4 E x3 | x8 | x4 E2 x2 | x6 || B>B | x8 | (G2 A2) x4 | %12
 x4 E2 x2 | x8 | x7 E | x6 E2 | x4 D2 x2 | (E2 C>C B,2) |] %18
V:3
 (G,B,) | [E,E]3 [E,B,] [E,G,][E,B,][E,C][E,A,] | [E,G,]6 [E,B,]2 | %3
 [B,,B,]2 [B,,B,]2 [B,,B,]2 [B,,B,]2 | [E,B,]6 (G,B,) | [E,E]3 [E,B,] [E,G,][E,B,][E,C][E,A,] | %6
 [E,G,]6 [E,B,]2 | [F,B,]2 [F,D]2 (CB,) [F,=A,]2 | [B,,B,]6 || B,>B, | %10
 [B,F]3 [B,F] [B,F]2 [B,E][B,F] | (E2 C2) [E,E]3 [E,G,] | A,2 [A,B,][A,C] [G,B,]2 [F,B,][E,B,] | %13
 [B,,B,]6 [B,,B,]2 | [E,B,]2 [E,B,]>[E,B,] [E,E]2 [E,_D][E,D] | [A,C]4 !fermata![A,C]2 (C_C) | %16
 [B,,B,]2 [B,,G,][B,,G,] (F,A,) !fermata![B,,B,]>[B,,A,] | %17
 (!fermata!G,2 A,A,3/4 !fermata!G,2) x/4 |] %18
V:4
 E,2 | x8 | x8 | x8 | x6 E,2 | x8 | x8 | x4 F,2 x2 | x6 || B,>B, | x8 | E,4 x4 | A,2 x6 | x8 | x8 | %15
 x6 A,,2 | x4 B,,2 x2 | E,6 |] %18

